wiiu/_inc/system.svg

<svg xmlns="http://www.w3.org/2000/svg"><g fill="#fff"><path d="m70.08 134.778c1.708-6.551 3.305-12.724 4.928-18.928 7.503-28.568 14.868-57.166 22.695-85.653.813-3.007 1.786-5.957 3.196-8.748 3.575-7.122 9.151-11.51 17.167-12.482 7.341-.894 14.246.135 19.957 5.333 4.01 3.628 6.285 8.34 7.746 13.433 5.661 20.093 10.859 40.294 16.168 60.471 4.006 15.272 7.962 30.545 11.941 45.791.027.081.081.162.135.27.571-.054.381-.567.462-.867 6.498-25.429 12.971-50.828 19.469-76.256 3.901-15.246 7.8-30.492 11.644-45.738.301-1.164.733-1.546 1.978-1.546 11.645.054 23.289.027 34.961.027 1.923 0 1.896 0 1.38 1.897-6.797 24.454-13.565 48.934-20.417 73.387-6.824 24.346-13.46 48.772-20.798 72.979-2.464 8.098-6.878 14.895-14.408 19.202-10.207 5.822-26.239 4.604-34.58-9.127-2.98-4.901-4.63-10.291-6.173-15.732-8.559-30.221-16.764-60.551-24.996-90.881-.082-.327-.19-.624-.325-1.029-.57.867-.651 1.759-.894 2.599-7.608 28.001-15.192 56.001-23.073 83.948-1.65 5.849-2.977 11.78-5.63 17.305-2.791 5.795-6.609 10.615-12.485 13.595-10.156 5.117-23.397 2.437-30.927-6.068-4.603-5.198-7.04-11.399-8.934-17.926-10.915-37.641-21.341-75.419-31.848-113.195-2.761-9.855-5.496-19.768-8.287-29.651-.324-1.138-.081-1.33 1.03-1.33 11.887.027 23.778.027 35.666 0 1.137 0 1.488.409 1.758 1.438 8.448 33.226 16.927 66.454 25.402 99.68 1.897 7.446 3.79 14.868 5.687 22.314.081.381.189.732.405 1.488z"/><path d="m511.025 135.457c-19.418 0-38.859 0-58.276 0-4.199 0-8.368-.514-12.431-1.732-11.453-3.385-17.791-11.293-19.985-22.803-.594-3.169-.864-6.362-.864-9.558 0-25.699 0-51.398 0-77.097 0-5.174.891-10.156 3.763-14.571 4.061-6.227 10.126-8.988 17.305-9.45 7.392-.487 14.811-.081 22.205-.189 1.138-.027 1.03.624 1.03 1.353 0 8.83-.03 17.629 0 26.458.054 13.349-.354 26.702.189 40.024.405 10.507 3.358 20.254 10.399 28.406 5.414 6.284 12.32 10.129 20.309 12.133 10.02 2.491 20.092 2.572 30.086 0 16.086-4.171 25.645-14.678 29.409-30.708 1.137-4.849 1.515-9.777 1.515-14.732-.027-20.42 0-40.837-.027-61.257 0-1.38.381-1.704 1.708-1.677 7.013.135 14.054-.243 21.068.189 13.187.786 21.446 9.477 21.527 22.721.081 16.168.027 32.359.027 48.526 0 10.48.027 20.933-.027 31.413-.027 4.685-.729 9.316-2.356 13.73-3.601 9.937-10.885 15.543-20.987 17.764-3.358.76-6.797 1.084-10.237 1.084-18.466-.027-36.908-.027-55.35-.027z"/><path d="m263.784 120.373c0-19.009.027-37.992-.027-57.004 0-1.354.351-1.705 1.707-1.705 11.021.054 22.071.054 33.091 0 1.273 0 1.543.378 1.543 1.597-.027 38.184-.027 76.394 0 114.575 0 1.245-.324 1.573-1.57 1.573-11.077-.054-22.151-.054-33.229 0-1.272 0-1.542-.382-1.542-1.6.027-19.144.027-38.289.027-57.436z"/><path d="m337.63 120.373c0-19.009.027-37.992-.027-57.004 0-1.381.354-1.705 1.708-1.705 10.993.054 21.962.054 32.956 0 1.218 0 1.68.189 1.68 1.57-.054 38.184-.027 76.394 0 114.575 0 1.245-.327 1.573-1.572 1.573-11.075-.054-22.152-.054-33.226 0-1.3 0-1.546-.382-1.546-1.6.054-19.117.027-38.262.027-57.409z"/><path d="m533.447 33.501c0 10.643.216 21.312-.081 31.954-.19 7.311-2.816 13.838-8.368 18.874-10.507 9.532-30.572 7.665-37.073-9.586-1.326-3.52-2.002-7.175-2.032-10.912-.027-20.852-.027-41.677-.054-62.529 0-.975.273-1.272 1.246-1.272 15.03.027 30.086.027 45.116 0 1.083 0 1.327.324 1.327 1.353-.027 10.696-.027 21.392-.027 32.118.027 0-.027 0-.054 0z"/><path d="m260.182 21.044c.027-10.994 8.857-20.228 19.337-20.879 7.743-.46 14.378 1.815 19.306 7.908 7.908 9.747 5.009 24.045-5.957 30.113-10.75 5.958-23.829 2.653-29.924-7.557-1.867-3.085-2.681-6.47-2.762-9.585z"/><path d="m377.221 20.446c-.027 9.805-6.713 17.767-16.734 20.15-10.264 2.437-20.987-2.899-24.859-12.431-4.957-12.13 2.762-25.155 15.246-27.568 9.046-1.759 16.789.894 22.53 8.343 2.626 3.439 3.682 7.473 3.817 11.506z"/></g></svg>

<?xml version="1.0" encoding="utf-8"?>
<svg version="1.1" xmlns="http://www.w3.org/2000/svg">
  <g>
    <path d="M 70.08 134.778 C 71.788 128.227 73.385 122.054 75.008 115.85 C 82.511 87.282 89.876 58.684 97.703 30.197 C 98.516 27.19 99.489 24.24 100.899 21.449 C 104.474 14.327 110.05 9.939 118.066 8.967 C 125.407 8.073 132.312 9.102 138.023 14.3 C 142.033 17.928 144.308 22.64 145.769 27.733 C 151.43 47.826 156.628 68.027 161.937 88.204 C 165.943 103.476 169.899 118.749 173.878 133.995 C 173.905 134.076 173.959 134.157 174.013 134.265 C 174.584 134.211 174.394 133.698 174.475 133.398 C 180.973 107.969 187.446 82.57 193.944 57.142 C 197.845 41.896 201.744 26.65 205.588 11.404 C 205.889 10.24 206.321 9.858 207.566 9.858 C 219.211 9.912 230.855 9.885 242.527 9.885 C 244.45 9.885 244.423 9.885 243.907 11.782 C 237.11 36.236 230.342 60.716 223.49 85.169 C 216.666 109.515 210.03 133.941 202.692 158.148 C 200.228 166.246 195.814 173.043 188.284 177.35 C 178.077 183.172 162.045 181.954 153.704 168.223 C 150.724 163.322 149.074 157.932 147.531 152.491 C 138.972 122.27 130.767 91.94 122.535 61.61 C 122.453 61.283 122.345 60.986 122.21 60.581 C 121.64 61.448 121.559 62.34 121.316 63.18 C 113.708 91.181 106.124 119.181 98.243 147.128 C 96.593 152.977 95.266 158.908 92.613 164.433 C 89.822 170.228 86.004 175.048 80.128 178.028 C 69.972 183.145 56.731 180.465 49.201 171.96 C 44.598 166.762 42.161 160.561 40.267 154.034 C 29.352 116.393 18.926 78.615 8.419 40.839 C 5.658 30.984 2.923 21.071 0.132 11.188 C -0.192 10.05 0.051 9.858 1.162 9.858 C 13.049 9.885 24.94 9.885 36.828 9.858 C 37.965 9.858 38.316 10.267 38.586 11.296 C 47.034 44.522 55.513 77.75 63.988 110.976 C 65.885 118.422 67.778 125.844 69.675 133.29 C 69.756 133.671 69.864 134.022 70.08 134.778 Z" style="fill: rgb(255, 255, 255);"/>
    <path d="M 511.025 135.457 C 491.607 135.457 472.166 135.457 452.749 135.457 C 448.55 135.457 444.381 134.943 440.318 133.725 C 428.865 130.34 422.527 122.432 420.333 110.922 C 419.739 107.753 419.469 104.56 419.469 101.364 C 419.469 75.665 419.469 49.966 419.469 24.267 C 419.469 19.093 420.36 14.111 423.232 9.696 C 427.293 3.469 433.358 0.708 440.537 0.246 C 447.929 -0.241 455.348 0.165 462.742 0.057 C 463.88 0.03 463.772 0.681 463.772 1.41 C 463.772 10.24 463.742 19.039 463.772 27.868 C 463.826 41.217 463.418 54.57 463.961 67.892 C 464.366 78.399 467.319 88.146 474.36 96.298 C 479.774 102.582 486.68 106.427 494.669 108.431 C 504.689 110.922 514.761 111.003 524.755 108.431 C 540.841 104.26 550.4 93.753 554.164 77.723 C 555.301 72.874 555.679 67.946 555.679 62.991 C 555.652 42.571 555.679 22.154 555.652 1.734 C 555.652 0.354 556.033 0.03 557.36 0.057 C 564.373 0.192 571.414 -0.186 578.428 0.246 C 591.615 1.032 599.874 9.723 599.955 22.967 C 600.036 39.135 599.982 55.326 599.982 71.493 C 599.982 81.973 600.009 92.426 599.955 102.906 C 599.928 107.591 599.226 112.222 597.599 116.636 C 593.998 126.573 586.714 132.179 576.612 134.4 C 573.254 135.16 569.815 135.484 566.375 135.484 C 547.909 135.457 529.467 135.457 511.025 135.457 Z" style="fill: rgb(255, 255, 255);"/>
    <path d="M 263.784 120.373 C 263.784 101.364 263.811 82.381 263.757 63.369 C 263.757 62.015 264.108 61.664 265.464 61.664 C 276.485 61.718 287.535 61.718 298.555 61.664 C 299.828 61.664 300.098 62.042 300.098 63.261 C 300.071 101.445 300.071 139.655 300.098 177.836 C 300.098 179.081 299.774 179.409 298.528 179.409 C 287.451 179.355 276.377 179.355 265.299 179.409 C 264.027 179.409 263.757 179.027 263.757 177.809 C 263.784 158.665 263.784 139.52 263.784 120.373 Z" style="fill: rgb(255, 255, 255);"/>
    <path d="M 337.63 120.373 C 337.63 101.364 337.657 82.381 337.603 63.369 C 337.603 61.988 337.957 61.664 339.311 61.664 C 350.304 61.718 361.273 61.718 372.267 61.664 C 373.485 61.664 373.947 61.853 373.947 63.234 C 373.893 101.418 373.92 139.628 373.947 177.809 C 373.947 179.054 373.62 179.382 372.375 179.382 C 361.3 179.328 350.223 179.328 339.149 179.382 C 337.849 179.382 337.603 179 337.603 177.782 C 337.657 158.665 337.63 139.52 337.63 120.373 Z" style="fill: rgb(255, 255, 255);"/>
    <path d="M 533.447 33.501 C 533.447 44.144 533.663 54.813 533.366 65.455 C 533.176 72.766 530.55 79.293 524.998 84.329 C 514.491 93.861 494.426 91.994 487.925 74.743 C 486.599 71.223 485.923 67.568 485.893 63.831 C 485.866 42.979 485.866 22.154 485.839 1.302 C 485.839 0.327 486.112 0.03 487.085 0.03 C 502.115 0.057 517.171 0.057 532.201 0.03 C 533.284 0.03 533.528 0.354 533.528 1.383 C 533.501 12.079 533.501 22.775 533.501 33.501 C 533.528 33.501 533.474 33.501 533.447 33.501 Z" style="fill: rgb(255, 255, 255);"/>
    <path d="M 260.182 21.044 C 260.209 10.05 269.039 0.816 279.519 0.165 C 287.262 -0.295 293.897 1.98 298.825 8.073 C 306.733 17.82 303.834 32.118 292.868 38.186 C 282.118 44.144 269.039 40.839 262.944 30.629 C 261.077 27.544 260.263 24.159 260.182 21.044 Z" style="fill: rgb(255, 255, 255);"/>
    <path d="M 377.221 20.446 C 377.194 30.251 370.508 38.213 360.487 40.596 C 350.223 43.033 339.5 37.697 335.628 28.165 C 330.671 16.035 338.39 3.01 350.874 0.597 C 359.92 -1.162 367.663 1.491 373.404 8.94 C 376.03 12.379 377.086 16.413 377.221 20.446 Z" style="fill: rgb(255, 255, 255);"/>
  </g>
</svg>
